src/app/components/images/Xp.svg

<svg width="56" height="56" viewBox="0 0 56 56" fill="none" xmlns="http://www.w3.org/2000/svg">
<circle cx="28" cy="28" r="28" fill="#FEFAEE"/>
<circle cx="28" cy="28" r="27.4167" stroke="#171717" stroke-opacity="0.16" stroke-width="1.16667"/>
<g clip-path="url(#clip0_18_137)">
<path fill-rule="evenodd" clip-rule="evenodd" d="M19.8218 20.3456L11.6667 28.5834C13.2979 30.2312 15.1613 31.6198 17.1928 32.7062C17.7544 34.2109 18.6346 35.622 19.8334 36.833C24.3438 41.3891 31.6565 41.3891 36.1667 36.833C37.3656 35.622 38.2458 34.2109 38.8074 32.7062C40.8389 31.6198 42.7023 30.2312 44.3334 28.5834L36.185 20.3523C36.1789 20.3461 36.1729 20.34 36.1667 20.3338C31.6565 15.7777 24.3438 15.7777 19.8334 20.3338C19.8296 20.3378 19.8257 20.3417 19.8218 20.3456ZM35.3864 34.1925C33.0099 35.0027 30.5152 35.4176 28.0001 35.4176C25.485 35.4176 22.9903 35.0027 20.6138 34.1925C20.8713 34.5376 21.1556 34.8687 21.4667 35.1831C25.075 38.828 30.9251 38.828 34.5334 35.1831C34.8446 34.8687 35.1289 34.5376 35.3864 34.1925ZM21.6342 21.8187C22.247 22.2277 22.8985 22.5776 23.5803 22.8629C24.9815 23.4492 26.4834 23.7509 28.0001 23.7509C29.5168 23.7509 31.0186 23.4492 32.4199 22.8629C33.1016 22.5776 33.7532 22.2277 34.366 21.8187C30.8027 18.3939 25.1974 18.3939 21.6342 21.8187Z" fill="#171717" fill-opacity="0.8"/>
</g>
<defs>
<clipPath id="clip0_18_137">
<rect width="32.6667" height="23.3333" fill="white" transform="translate(11.6667 16.9167)"/>
</clipPath>
</defs>
</svg>

<svg xmlns="http://www.w3.org/2000/svg" width="56" height="56" fill="none" viewBox="0 0 56 56"><circle cx="28" cy="28" r="28" fill="#fefaee"/><circle cx="28" cy="28" r="27.417" stroke="#171717" stroke-opacity=".16" stroke-width="1.167"/><g clip-path="url(#a)"><path fill="#171717" fill-opacity=".8" fill-rule="evenodd" d="m19.822 20.346-8.155 8.237a23.1 23.1 0 0 0 5.526 4.123 11.6 11.6 0 0 0 2.64 4.127 11.467 11.467 0 0 0 16.334 0 11.6 11.6 0 0 0 2.64-4.127 23.1 23.1 0 0 0 5.526-4.123l-8.148-8.23-.018-.02a11.467 11.467 0 0 0-16.334 0zm15.564 13.847a22.9 22.9 0 0 1-14.772 0q.386.518.853.99a9.174 9.174 0 0 0 13.066 0q.468-.472.853-.99M21.634 21.819q.921.615 1.946 1.044a11.45 11.45 0 0 0 10.786-1.044 9.173 9.173 0 0 0-12.732 0" clip-rule="evenodd"/></g><defs><clipPath id="a"><path fill="#fff" d="M11.667 16.917h32.667V40.25H11.667z"/></clipPath></defs></svg>
